; generated by PrusaSlicer 2.2.0+win64 on 2021-02-18 at 02:20:56 UTC

; 

; external perimeters extrusion width = 0.45mm
; perimeters extrusion width = 0.45mm
; infill extrusion width = 0.45mm
; solid infill extrusion width = 0.45mm
; top infill extrusion width = 0.40mm
; support material extrusion width = 0.40mm
; first layer extrusion width = 0.20mm

M201 X9000 Y9000 Z500 E10000 ; sets maximum accelerations, mm/sec^2
M203 X500 Y500 Z12 E120 ; sets maximum feedrates, mm/sec
M204 P1500 R1500 T1500 ; sets acceleration (P, T) and retract acceleration (R), mm/sec^2
M205 X10.00 Y10.00 Z0.20 E2.50 ; sets the jerk limits, mm/sec
M205 S0 T0 ; sets the minimum extruding and travel feed rate, mm/sec
M107
M502

M500

M501


; Color group






G28 X0 Y0 Z0
M109 S200

T0
G0 X40  E30 F900

T4
G0 X80  E30 F900

T8
G0 X120  E30 F900

M107
G90
G92 E0; Đặt lại vị trí đùn
T0
M109 S 195
G21 ; set units to millimeters
G90 ; use absolute coordinates
M83 ; use relative distances for extrusion
; Filament gcode
G1 E-3.00000 F4800.00000
G1 Z0.200 F7200.000
G1 X103.035 Y101.024
G1 E3.00000 F4800.00000
G1 F1800.000
G1 X103.035 Y100.476 E0.00715
G1 X102.721 Y100.717 E0.00517
G1 X102.721 Y101.520 E0.01049
G1 X102.407 Y102.182 E0.00956
G1 X102.407 Y100.958 E0.01598
G1 X102.093 Y101.199 E0.00517
G1 X102.093 Y102.458 E0.01644
G1 X101.886 Y102.458 E0.00270
G1 X101.886 Y102.557 E0.00130
G1 X101.779 Y102.640 E0.00177
G1 X101.779 Y101.440 E0.01566
G1 X101.465 Y101.682 E0.00517
G1 X101.465 Y102.881 E0.01566
G1 X101.150 Y103.122 E0.00517
G1 X101.150 Y101.923 E0.01566
G1 X100.836 Y102.164 E0.00517
G1 X100.836 Y103.363 E0.01566
G1 X100.522 Y103.604 E0.00517
G1 X100.522 Y102.405 E0.01566
G1 X100.208 Y102.646 E0.00517
G1 X100.208 Y103.845 E0.01566
G1 X99.894 Y104.086 E0.00517
G1 X99.894 Y102.887 E0.01566
G1 X99.580 Y103.128 E0.00517
G1 X99.580 Y104.327 E0.01566
G1 X99.266 Y104.568 E0.00517
G1 X99.266 Y103.369 E0.01566
G1 X98.951 Y103.610 E0.00517
G1 X98.951 Y104.908 E0.01695
G1 X98.637 Y105.317 E0.00674
G1 X98.637 Y103.851 E0.01915
G1 X98.457 Y103.990 E0.00297
G1 X98.323 Y104.164 E0.00287
G1 X98.323 Y105.727 E0.02041
G1 X98.009 Y106.136 E0.00674
G1 X98.009 Y104.573 E0.02041
G1 X97.695 Y104.983 E0.00674
G1 X97.695 Y106.545 E0.02041
G1 X97.381 Y106.955 E0.00674
G1 X97.381 Y105.392 E0.02041
G1 X97.066 Y105.801 E0.00674
G1 X97.066 Y107.364 E0.02041
G1 X96.752 Y107.774 E0.00674
G1 X96.752 Y106.211 E0.02041
G1 X96.438 Y106.620 E0.00674
G1 X96.438 Y108.183 E0.02041
G1 X96.124 Y108.593 E0.00674
G1 X96.124 Y107.030 E0.02041
G1 X95.810 Y107.439 E0.00674
G1 X95.810 Y109.002 E0.02041
G1 X95.496 Y109.411 E0.00674
G1 X95.496 Y107.849 E0.02041
G1 X95.181 Y108.258 E0.00674
G1 X95.181 Y109.821 E0.02041
G1 X94.867 Y110.230 E0.00674
G1 X94.867 Y108.667 E0.02041
G1 X94.553 Y109.077 E0.00674
G1 X94.553 Y110.640 E0.02041
G1 X94.446 Y110.779 E0.00230
G1 X94.239 Y111.279 E0.00707
G1 X94.239 Y109.486 E0.02342
G1 X93.925 Y109.896 E0.00674
G1 X93.925 Y112.038 E0.02797
G1 X93.611 Y112.796 E0.01072
G1 X93.611 Y110.310 E0.03247
G1 X93.296 Y111.068 E0.01072
G1 X93.296 Y113.554 E0.03247
G1 X93.011 Y114.243 E0.00974
G1 X92.982 Y114.243 E0.00038
G1 X92.982 Y111.827 E0.03156
G1 X92.668 Y112.585 E0.01072
G1 X92.668 Y114.243 E0.02166
G1 X92.458 Y114.243 E0.00275
G1 X92.458 Y115.579 E0.01745
G1 X92.354 Y115.830 E0.00355
G1 X92.354 Y113.344 E0.03247
G1 X92.040 Y114.102 E0.01072
G1 X92.040 Y116.588 E0.03247
G1 X91.726 Y117.347 E0.01072
G1 X91.726 Y114.861 E0.03247
G1 X91.412 Y115.619 E0.01072
G1 X91.412 Y118.554 E0.03834
G1 X91.097 Y120.941 E0.03144
G1 X91.097 Y116.378 E0.05960
G1 X90.783 Y117.136 E0.01072
G1 X90.783 Y121.315 E0.05458
G1 X90.469 Y121.315 E0.00410
G1 X90.469 Y118.424 E0.03775
G1 X90.155 Y120.811 E0.03144
G1 X90.155 Y121.315 E0.00658
G1 X90.101 Y121.315 E0.00071
G1 X90.101 Y127.097 E0.07552
G1 X89.846 Y127.911 E0.01115
G1 X89.841 Y122.655 E0.06865
G1 F5760.000
G1 X89.845 Y126.255 E-2.85000
G1 E-0.15000 F4800.00000
G1 X74.761 Y133.901 F7200.000
G1 E3.00000 F4800.00000
G1 F1800.000
G1 X74.761 Y161.385 E0.35898
G1 X75.075 Y161.385 E0.00410
G1 X75.075 Y133.971 E0.35805
G1 X75.389 Y133.971 E0.00410
G1 X75.389 Y161.385 E0.35805
G1 X75.704 Y161.385 E0.00410
G1 X75.704 Y133.971 E0.35805
G1 X76.018 Y133.971 E0.00410
G1 X76.018 Y161.385 E0.35805
G1 X76.332 Y161.385 E0.00410
G1 X76.332 Y133.971 E0.35805
G1 X76.646 Y133.971 E0.00410
G1 X76.646 Y161.385 E0.35805
G1 X76.830 Y161.385 E0.00240
G1 X76.830 Y168.456 E0.09236
G1 X76.960 Y168.456 E0.00170
G1 X76.960 Y117.472 E0.66592
G1 X77.274 Y117.472 E0.00410
G1 X77.274 Y168.456 E0.66592
G1 X77.589 Y168.456 E0.00410
G1 X77.589 Y117.472 E0.66592
G1 X77.903 Y117.472 E0.00410
G1 X77.903 Y168.456 E0.66592
G1 X78.217 Y168.456 E0.00410
G1 X78.217 Y117.472 E0.66592
G1 X78.531 Y117.472 E0.00410
G1 X78.531 Y168.456 E0.66592
G1 X78.845 Y168.456 E0.00410
G1 X78.845 Y117.472 E0.66592
G1 X79.159 Y117.472 E0.00410
G1 X79.159 Y168.456 E0.66592
G1 X79.187 Y168.456 E0.00036
G1 X79.187 Y170.813 E0.03079
G1 X79.473 Y170.813 E0.00374
G1 X79.473 Y110.401 E0.78906
G1 X79.788 Y110.401 E0.00410
G1 X79.788 Y170.813 E0.78906
G1 X80.102 Y170.813 E0.00410
G1 X80.102 Y110.401 E0.78906
G1 X80.416 Y110.401 E0.00410
G1 X80.416 Y170.813 E0.78906
G1 X80.730 Y170.813 E0.00410
G1 X80.730 Y110.401 E0.78906
G1 X81.044 Y110.401 E0.00410
G1 X81.044 Y170.813 E0.78906
G1 X81.358 Y170.813 E0.00410
G1 X81.358 Y110.401 E0.78906
G1 X81.544 Y110.401 E0.00242
G1 X81.544 Y100.972 E0.12315
G1 X81.673 Y100.972 E0.00168
G1 X81.673 Y173.170 E0.94300
G1 X81.987 Y173.170 E0.00410
G1 X81.987 Y100.972 E0.94300
G1 X82.301 Y100.972 E0.00410
G1 X82.301 Y173.170 E0.94300
G1 X82.615 Y173.170 E0.00410
G1 X82.615 Y100.972 E0.94300
G1 X82.929 Y100.972 E0.00410
G1 X82.929 Y173.170 E0.94300
G1 X83.243 Y173.170 E0.00410
G1 X83.243 Y100.972 E0.94300
G1 X83.558 Y100.972 E0.00410
G1 X83.558 Y173.170 E0.94300
G1 X83.872 Y173.170 E0.00410
G1 X83.872 Y100.972 E0.94300
G1 X83.901 Y100.972 E0.00038
G1 X83.901 Y96.258 E0.06157
G1 X84.186 Y96.258 E0.00372
G1 X84.186 Y173.241 E1.00549
G1 X155.500 Y173.241 F7200.000
G1 F1800.000
G1 X155.500 Y150.281 E0.29989
G1 X155.186 Y153.422 E0.04124
G1 X155.186 Y173.170 E0.25793
G1 X154.872 Y173.170 E0.00410
G1 X154.872 Y156.564 E0.21690
G1 X154.842 Y156.860 E0.00389
G1 X154.771 Y157.018 E0.00225
G1 X154.557 Y157.249 E0.00411
G1 X154.557 Y173.170 E0.20795
G1 X154.243 Y173.170 E0.00410
G1 X154.243 Y157.589 E0.20351
G1 X153.929 Y157.929 E0.00605
G1 X153.929 Y173.170 E0.19907
G1 X153.615 Y173.170 E0.00410
G1 X153.615 Y158.269 E0.19463
G1 X153.301 Y158.609 E0.00605
G1 X153.301 Y173.170 E0.19019
G1 X152.987 Y173.170 E0.00410
G1 X152.987 Y158.949 E0.18575
G1 X152.673 Y159.289 E0.00605
G1 X152.673 Y173.170 E0.18131
G1 X152.358 Y173.170 E0.00410
G1 X152.358 Y159.629 E0.17687
G1 X152.256 Y159.739 E0.00197
G1 X152.256 Y159.899 E0.00209
G1 X152.108 Y159.899 E0.00193
G1 X152.044 Y159.969 E0.00124
G1 X152.044 Y173.170 E0.17243
G1 X151.730 Y173.170 E0.00410
G1 X151.730 Y160.309 E0.16799
G1 X151.416 Y160.644 E0.00600
G1 X151.416 Y173.170 E0.16361
G1 X151.385 Y173.170 E0.00041
G1 X151.385 Y175.527 E0.03079
G1 X151.102 Y175.527 E0.00370
G1 X151.102 Y160.805 E0.19230
G1 X150.788 Y160.945 E0.00449
G1 X150.788 Y175.527 E0.19047
G1 X150.473 Y175.527 E0.00410
G1 X150.473 Y161.084 E0.18864
G1 X150.159 Y161.224 E0.00449
G1 X150.159 Y175.527 E0.18681
G1 X149.845 Y175.527 E0.00410
G1 X149.845 Y161.364 E0.18499
G1 X149.531 Y161.504 E0.00449
G1 X149.531 Y175.527 E0.18316
G1 X149.217 Y175.527 E0.00410
G1 X149.217 Y161.644 E0.18133
G1 X148.903 Y161.784 E0.00449
G1 X148.903 Y175.527 E0.17950
G1 X148.588 Y175.527 E0.00410
G1 X148.588 Y161.924 E0.17767
G1 X148.274 Y162.064 E0.00449
G1 X148.274 Y175.527 E0.17585
G1 X147.960 Y175.527 E0.00410
G1 X147.960 Y162.204 E0.17402
G1 X147.646 Y162.344 E0.00449
G1 X147.646 Y175.527 E0.17219
G1 X147.332 Y175.527 E0.00410
G1 X147.332 Y162.484 E0.17036
G1 X147.018 Y162.624 E0.00449
G1 X147.018 Y175.527 E0.16854
G1 X146.704 Y175.527 E0.00410
G1 X146.704 Y162.764 E0.16671
G1 X146.389 Y162.904 E0.00449
G1 X146.389 Y175.527 E0.16488
G1 X146.075 Y175.527 E0.00410
G1 X146.075 Y163.017 E0.16340
G1 X145.761 Y163.129 E0.00436
G1 X145.761 Y175.527 E0.16193
G1 X145.447 Y175.527 E0.00410
G1 X145.447 Y163.241 E0.16047
G1 X145.133 Y163.354 E0.00436
G1 X145.133 Y175.527 E0.15900
G1 X144.819 Y175.527 E0.00410
G1 X144.819 Y163.466 E0.15754
G1 X144.504 Y163.578 E0.00436
G1 X144.504 Y175.527 E0.15607
G1 X144.190 Y175.527 E0.00410
G1 X144.190 Y163.690 E0.15461
G1 X143.876 Y163.802 E0.00436
G1 X143.876 Y175.527 E0.15315
G1 X143.562 Y175.527 E0.00410
G1 X143.562 Y163.914 E0.15168
G1 X143.248 Y164.026 E0.00436
G1 X143.248 Y175.527 E0.15022
G1 X142.934 Y175.527 E0.00410
G1 X142.934 Y164.139 E0.14875
G1 X142.828 Y164.176 E0.00147
G1 X142.828 Y164.613 E0.00571
G1 X142.619 Y164.613 E0.00272
G1 X142.619 Y175.527 E0.14255
G1 X142.305 Y175.527 E0.00410
G1 X142.305 Y164.613 E0.14255
G1 X141.991 Y164.613 E0.00410
G1 X141.991 Y175.527 E0.14255
G1 X141.677 Y175.527 E0.00410
G1 X141.677 Y164.613 E0.14255
G1 X141.604 Y164.613 E0.00096
G1 X141.363 Y164.699 E0.00334
G1 X141.363 Y175.527 E0.14143
G1 X141.049 Y175.527 E0.00410
G1 X141.049 Y164.792 E0.14022
G1 X140.734 Y164.877 E0.00425
G1 X140.734 Y175.527 E0.13910
G1 X140.420 Y175.527 E0.00410
G1 X140.420 Y164.963 E0.13798
G1 X140.106 Y165.049 E0.00425
G1 X140.106 Y175.527 E0.13686
G1 X139.792 Y175.527 E0.00410
G1 X139.792 Y165.135 E0.13574
G1 X139.478 Y165.221 E0.00425
G1 X139.478 Y177.884 E0.16540
G1 X139.164 Y177.884 E0.00410
G1 X139.164 Y165.307 E0.16428
G1 X138.850 Y165.392 E0.00425
G1 X138.850 Y177.884 E0.16316
G1 X138.535 Y177.884 E0.00410
G1 X138.535 Y165.478 E0.16204
G1 X138.221 Y165.564 E0.00425
G1 X138.221 Y177.884 E0.16092
G1 X137.907 Y177.884 E0.00410
G1 X137.907 Y165.650 E0.15980
G1 X137.593 Y165.736 E0.00425
G1 X137.593 Y177.884 E0.15868
G1 X137.279 Y177.884 E0.00410
G1 X137.279 Y165.821 E0.15756
G1 X136.965 Y165.907 E0.00425
G1 X136.965 Y177.884 E0.15644
G1 X136.650 Y177.884 E0.00410
G1 X136.650 Y165.993 E0.15532
G1 X136.336 Y166.079 E0.00425
G1 X136.336 Y177.884 E0.15419
G1 X136.022 Y177.884 E0.00410
G1 X136.022 Y166.161 E0.15313
G1 X135.708 Y166.221 E0.00418
G1 X135.708 Y177.884 E0.15234
G1 X135.394 Y177.884 E0.00410
G1 X135.394 Y166.282 E0.15154
G1 X135.080 Y166.342 E0.00418
G1 X135.080 Y177.884 E0.15075
G1 X134.765 Y177.884 E0.00410
G1 X134.765 Y166.403 E0.14996
G1 X134.451 Y166.464 E0.00418
G1 X134.451 Y177.884 E0.14917
G1 X134.137 Y177.884 E0.00410
G1 X134.137 Y166.524 E0.14838
G1 X133.823 Y166.585 E0.00418
G1 X133.823 Y177.884 E0.14759
G1 X133.509 Y177.884 E0.00410
G1 X133.509 Y166.645 E0.14680
G1 X133.195 Y166.706 E0.00418
G1 X133.195 Y177.884 E0.14601
G1 X132.881 Y177.884 E0.00410
G1 X132.881 Y166.766 E0.14522
G1 X132.566 Y166.827 E0.00418
G1 X132.566 Y177.884 E0.14442
G1 X132.252 Y177.884 E0.00410
G1 X132.252 Y166.888 E0.14363
G1 X131.938 Y166.948 E0.00418
G1 X131.938 Y177.884 E0.14284
G1 X131.624 Y177.884 E0.00410
G1 X131.624 Y167.009 E0.14205
G1 X131.310 Y167.069 E0.00418
G1 X131.310 Y177.884 E0.14126
G1 X130.996 Y177.884 E0.00410
G1 X130.996 Y167.130 E0.14047
G1 X130.681 Y167.184 E0.00416
G1 X130.681 Y177.884 E0.13976
G1 X130.367 Y177.884 E0.00410
G1 X130.367 Y167.220 E0.13929
G1 X130.053 Y167.256 E0.00413
G1 X130.053 Y177.884 E0.13882
G1 X129.739 Y177.884 E0.00410
G1 X129.739 Y167.292 E0.13835
G1 X129.425 Y167.328 E0.00413
G1 X129.425 Y177.884 E0.13788
G1 X129.111 Y177.884 E0.00410
G1 X129.111 Y167.364 E0.13741
G1 X128.796 Y167.400 E0.00413
G1 X128.796 Y177.884 E0.13694
G1 X128.482 Y177.884 E0.00410
G1 X128.482 Y167.436 E0.13647
G1 X128.168 Y167.472 E0.00413
G1 X128.168 Y177.884 E0.13600
G1 X127.854 Y177.884 E0.00410
G1 X127.854 Y167.508 E0.13553
G1 X127.540 Y167.544 E0.00413
G1 X127.540 Y177.884 E0.13505
G1 X127.226 Y177.884 E0.00410
G1 X127.226 Y167.580 E0.13458
G1 X126.911 Y167.616 E0.00413
G1 X126.911 Y177.884 E0.13411
G1 X126.597 Y177.884 E0.00410
G1 X126.597 Y167.652 E0.13364
G1 X126.283 Y167.689 E0.00413
G1 X126.283 Y177.884 E0.13317
G1 X125.969 Y177.884 E0.00410
G1 X125.969 Y167.725 E0.13270
G1 X125.655 Y167.761 E0.00413
G1 X125.655 Y177.884 E0.13223
G1 X125.341 Y177.884 E0.00410
G1 X125.341 Y167.792 E0.13182
G1 X125.027 Y167.804 E0.00411
G1 X125.027 Y177.884 E0.13166
G1 X124.712 Y177.884 E0.00410
G1 X124.712 Y167.816 E0.13150
G1 X124.398 Y167.828 E0.00411
G1 X124.398 Y177.884 E0.13135
G1 X124.084 Y177.884 E0.00410
G1 X124.084 Y167.840 E0.13119
G1 X123.770 Y167.852 E0.00411
G1 X123.770 Y177.884 E0.13103
G1 X123.456 Y177.884 E0.00410
G1 X123.456 Y167.864 E0.13088
G1 X123.142 Y167.876 E0.00411
G1 X123.142 Y177.884 E0.13072
G1 X122.827 Y177.884 E0.00410
G1 X122.827 Y167.888 E0.13057
G1 X122.513 Y167.900 E0.00411
G1 X122.513 Y177.884 E0.13041
G1 X122.199 Y177.884 E0.00410
G1 X122.199 Y167.912 E0.13025
G1 X121.885 Y167.924 E0.00411
G1 X121.885 Y177.884 E0.13010
G1 X121.571 Y177.884 E0.00410
G1 X121.571 Y167.936 E0.12994
G1 X121.257 Y167.948 E0.00411
G1 X121.257 Y177.884 E0.12978
G1 X120.942 Y177.884 E0.00410
G1 X120.942 Y167.960 E0.12963
G1 X120.628 Y167.972 E0.00411
G1 X120.628 Y177.884 E0.12947
G1 X120.314 Y177.884 E0.00410
G1 X120.314 Y167.984 E0.12931
G1 X120.000 Y167.995 E0.00411
G1 X120.000 Y177.884 E0.12916
G1 X119.686 Y177.884 E0.00410
G1 X119.686 Y167.984 E0.12931
G1 X119.372 Y167.972 E0.00411
G1 X119.372 Y177.884 E0.12947
G1 X119.058 Y177.884 E0.00410
G1 X119.058 Y167.960 E0.12963
G1 X118.743 Y167.948 E0.00411
G1 X118.743 Y177.884 E0.12978
G1 X118.429 Y177.884 E0.00410
G1 X118.429 Y167.936 E0.12994
G1 X118.115 Y167.924 E0.00411
G1 X118.115 Y177.884 E0.13010
G1 X117.801 Y177.884 E0.00410
G1 X117.801 Y167.912 E0.13025
G1 X117.487 Y167.900 E0.00411
G1 X117.487 Y177.884 E0.13041
G1 X117.173 Y177.884 E0.00410
G1 X117.173 Y167.888 E0.13057
G1 X116.858 Y167.876 E0.00411
G1 X116.858 Y177.884 E0.13072
G1 X116.544 Y177.884 E0.00410
G1 X116.544 Y167.864 E0.13088
G1 X116.230 Y167.852 E0.00411
G1 X116.230 Y177.884 E0.13103
G1 X115.916 Y177.884 E0.00410
G1 X115.916 Y167.840 E0.13119
G1 X115.602 Y167.828 E0.00411
G1 X115.602 Y177.884 E0.13135
G1 X115.288 Y177.884 E0.00410
G1 X115.288 Y167.816 E0.13150
G1 X114.973 Y167.804 E0.00411
G1 X114.973 Y177.884 E0.13166
G1 X114.659 Y177.884 E0.00410
G1 X114.659 Y167.792 E0.13182
G1 X114.345 Y167.761 E0.00412
G1 X114.345 Y177.884 E0.13223
G1 X114.031 Y177.884 E0.00410
G1 X114.031 Y167.725 E0.13270
G1 X113.717 Y167.688 E0.00413
G1 X113.717 Y177.884 E0.13317
G1 X113.403 Y177.884 E0.00410
G1 X113.403 Y167.652 E0.13364
G1 X113.088 Y167.616 E0.00413
G1 X113.088 Y177.884 E0.13411
G1 X112.774 Y177.884 E0.00410
G1 X112.774 Y167.580 E0.13458
G1 X112.460 Y167.544 E0.00413
G1 X112.460 Y177.884 E0.13506
G1 X112.146 Y177.884 E0.00410
G1 X112.146 Y167.508 E0.13553
G1 X111.832 Y167.472 E0.00413
G1 X111.832 Y177.884 E0.13600
G1 X111.518 Y177.884 E0.00410
G1 X111.518 Y167.436 E0.13647
G1 X111.204 Y167.400 E0.00413
G1 X111.204 Y177.884 E0.13694
G1 X110.889 Y177.884 E0.00410
G1 X110.889 Y167.364 E0.13741
G1 X110.575 Y167.328 E0.00413
G1 X110.575 Y177.884 E0.13788
G1 X110.261 Y177.884 E0.00410
G1 X110.261 Y167.292 E0.13835
G1 X109.947 Y167.256 E0.00413
G1 X109.947 Y177.884 E0.13882
G1 X109.633 Y177.884 E0.00410
G1 X109.633 Y167.220 E0.13929
G1 X109.319 Y167.184 E0.00413
G1 X109.319 Y177.884 E0.13977
G1 X109.004 Y177.884 E0.00410
G1 X109.004 Y167.130 E0.14047
G1 X108.690 Y167.069 E0.00418
G1 X108.690 Y177.884 E0.14126
G1 X108.376 Y177.884 E0.00410
G1 X108.376 Y167.009 E0.14205
G1 X108.062 Y166.948 E0.00418
G1 X108.062 Y177.884 E0.14284
G1 X107.748 Y177.884 E0.00410
G1 X107.748 Y166.887 E0.14363
G1 X107.434 Y166.827 E0.00418
G1 X107.434 Y177.884 E0.14442
G1 X107.119 Y177.884 E0.00410
G1 X107.119 Y166.766 E0.14522
G1 X106.805 Y166.706 E0.00418
G1 X106.805 Y177.884 E0.14601
G1 X106.491 Y177.884 E0.00410
G1 X106.491 Y166.645 E0.14680
G1 X106.177 Y166.585 E0.00418
G1 X106.177 Y177.884 E0.14759
G1 X105.863 Y177.884 E0.00410
G1 X105.863 Y166.524 E0.14838
G1 X105.549 Y166.463 E0.00418
G1 X105.549 Y177.884 E0.14917
G1 X105.235 Y177.884 E0.00410
G1 X105.235 Y166.403 E0.14996
G1 X104.920 Y166.342 E0.00418
